X: 21
T: Ba yan hang gai
%%abc-version 2.0
%%abcx-abcm2ps-target-version 5.9.1 (29 Sep 2008)
%%abc-creator hum2abc beta
%%abcx-conversion-date 2013/10/02 07:44:27
%%abc-edited-by Helmut Schaffrath
%%humdrum-veritas 1966529332
%%humdrum-veritas-data 1346025326
%%continueall 1
%%barnumbers 0
L: 1/8
M: 4/4
K: F
A2G A2<C2D [I:setbarnb 1]| 
F2D C2<c2A | 
G2A cF2D C | 
c2>f2c4 | 
f2d f2<F2D | 
c2G2A3f | 
d2g2c2B A | 
G2>A2G4 | 
c2A G2<F2G | 
A2>f2 d f d c | 
A2A GF2D C | 
c2>f2c4 | 
f2d f2<C2D | 
F2>G2A3f | 
d2c2A2G D | 
F8 |]  



